X:1
T:E Major Daniel Read, 1785
T:Isaac Watts, 1719 (Psalm 84)    66. 66. 44. 44.
T:Derby No copyright. Transcribed from The American Singing-Book, 1786.
T:No Copyright.  Transcribed from The American Singing Book, 1786.
Z:No Copyright.  Transcribed from The American Singing Book, 1786.
%%score [ 1 2 3 4 ]
L:1/8
M:4/4
K:E
V:1 treble nm="Treble" snm="Tr."
V:2 treble nm="Counter" snm="C."
V:3 treble-8 nm="Tenor" snm="T."
V:4 bass nm="Bass" snm="B."
V:1
 B4 B2 G2 | c4 B4 | B8 | B4 G2 G2 | F4 (G3 A) | B8 | B4 BA GF | E4 (F3 G) | A8 | B4 B2 B2 | c4 B4 | %11
 B8 | B4 B2 B2 | B2 G2 A2 A2 | A6 B2 | c2 f2 e2 dc | B4 B4 | B8 |] %18
V:2
"^1. Lord of the worlds   above,        How pleasant and   how     fair       The    dwellings    of     Thy       love,     Thy earthly" E4 E2 E2 | %1
 (A2 G2) F4 | G8 | G4 E2 E2 | C4 E4 | D8 | E4 E2 E2 | E4 F4 | F8 | G4 E2 E2 | %10
"^1. temples             are!              To    Thine   abode   My   heart   aspires,        With   warm desires  To     see     my      God." E4 D4 | %11
 E8 | E4 G2 G2 | G2 E2 F2 F2 | F6 EF | G2 A2 G2 F2 | E4 [DF]4 | [EG]8 |] %18
V:3
 E4 G2 B2 | e4 d4 | e8 | e4 B2 G2 | A4 G4 | F8 | B4 G2 B2 | e4 d4 | c8 | e4 B2 G2 | (A2 G2) F4 | %11
 E8 | B4 e2 e2 | e2 B2 c2 c2 | c6 B2 | e2 dc B2 A2 | G4 F4 | E8 |] %18
V:4
 E,4 E,2 G,2 | A,4 B,4 | E,8 | E,4 E,2 G,2 | F,4 E,4 | B,,8 | B,,4 E,2 E,2 | C,4 B,,4 | F,8 | %9
 E,4 E,2 E,2 | A,,4 B,,4 | E,8 | E,4 E,2 E,2 | E,2 E,G, F,2 F,2 | F,6 G,F, | E,2 F,2 G,2 A,2 | %16
 B,4 B,,4 | E,8 |] %18

